icon-themes/elementary_svg/cmd/sc_dbnewreport.svg

<svg viewBox="0 0 16 16" xmlns="http://www.w3.org/2000/svg">

     /&gt;
 <path d="m1 3h1l1 1v10 1h12v-13l-1-1h-13z" fill="#e9e9e9" fill-rule="evenodd"/><path d="m2.4941406 0c-.9466364-.01252704-1.68179229.50034771-2.06249998 1.1914062-.38070767.6910586-.48022188 1.532259-.41210937 2.3496094a.50005.50005 0 0 0  .49804687.4589844h1.46874998v9.5c0 .658291.3381315 1.252194.7929688 1.707031.4548372.454837 1.04874.792969 1.7070312.792969h7.5136719v-1h-7.5136719c-.2845177 0-.6905395-.190539-1-.5s-.5-.715482-.5-1v-10a .50005.50005 0 0 0 -.5-.5h-1.3964843c.0180546-.4880009.0358225-.9976683.2167968-1.3261719.2433318-.4416945.5544798-.68202406 1.1738282-.6738281a.50005.50005 0 0 0  .0058593 0h9.5136719v-1z" fill="#8c8c8c"/><path d="m5.9872673 2.0000004v1l6.0127327.0007456v-1zm0 2v1l6.0127327.0007456v-1zm0 2v1l6.0127327.0007456v-1zm0 2v1l6.0127327.0007456v-1zm0 1.9999996v1l6.0127327.000746v-1z" fill="#fff"/><path d="m3.9872673 2.0000004v1h1v-1zm0 2v1h1v-1zm0 2v1h1v-1zm0 2v1h1v-1zm0 1.9999996v1h1v-1zm0 2v1h1v-1z" fill="#fff"/><g fill="#8c8c8c"><path d="m6.4863281 12a .50005.50005 0 0 0 -.5.5c.00191.761606-.123151 1.436455-.3652343 1.861328-.2420835.424874-.5307524.638672-1.1347657.638672a.50005.50005 0 0 0 -.1464843.023438.50005.50005 0 0 0 -.046875.017578.50005.50005 0 0 0 -.1269532.080078.50005.50005 0 0 0 -.0351562.035156.50005.50005 0 0 0 -.1210938.462891.50005.50005 0 0 0  .0332032.09375.50005.50005 0 0 0  .0507812.085937.50005.50005 0 0 0  .0332031.039063.50005.50005 0 0 0  .1601563.117187.50005.50005 0 0 0  .1445312.041016.50005.50005 0 0 0  .0546875.003906h8.5136719v-1h-6.6503906c.038423-.05544.1072253-.08591.140625-.144531.2999682-.526466.3468601-1.192735.390625-1.855469h6.1191406v-1z"/><path d="m7 0v1h6.1875c.231692 0 .752384.2523837 1.148438.6484375.396051.3960538.65039.9186987.65039 1.1503906l.016949 10.2011719h1l-.01695-10.2011719c-.001181-.711116-.423747-1.3397639-.941405-1.85742185-.517658-.51765796-1.146305-.94140625-1.857422-.94140625z"/><path d="m9 12v1h5.912109c-.01848.491497-.03539 1.005254-.21875 1.333984-.246464.441872-.560593.68293-1.193359.666016a.50005.50005 0 0 0 -.013672 0h-4.486328v1h4.474609c.958526.02562 1.706788-.485925 2.09375-1.179688.386963-.693761.486538-1.540457.417969-2.363281a.50005.50005 0 0 0 -.5-.457031z"/></g><path d="m12.987267 2.0000004v1h1v-1zm0 2v1h1v-1zm0 2v1h1v-1zm0 2v1h1v-1zm0 1.9999996v1h1v-1z" fill="#fff"/><path d="m6.8808594 13h8.1191406l-.186441 1h-8.0513437z" fill="#fff"/></svg>

<svg xmlns="http://www.w3.org/2000/svg" viewBox="0 0 16 16">/&gt;<path d="M1 3h1l1 1v11h12V2l-1-1H1z" fill="#e9e9e9" fill-rule="evenodd"/><path d="M2.494 0C1.548-.013.812.5.432 1.19c-.38.692-.48 1.534-.412 2.35A.5.5 0 0 0 .518 4h1.468v9.5c0 .658.338 1.252.793 1.707.454.455 1.048.793 1.706.793H12v-1H4.486c-.284 0-.69-.19-1-.5s-.5-.715-.5-1v-10a.5.5 0 0 0-.5-.5H1.09c.018-.488.036-.998.217-1.326C1.55 1.232 1.86.992 2.48 1a.5.5 0 0 0 .006 0H12V0z" fill="#a3a3a3"/><path d="M5.987 2v1H12V2zm0 2v1H12V4zm0 2v1H12V6zm0 2v1H12V8zm0 2v1H12v-1zM3.987 2v1h1V2zm0 2v1h1V4zm0 2v1h1V6zm0 2v1h1V8zm0 2v1h1v-1zm0 2v1h1v-1z" fill="#adadad"/><g fill="#a3a3a3"><path d="M6.486 12a.5.5 0 0 0-.5.5c.002.762-.123 1.436-.365 1.86-.24.426-.53.64-1.134.64a.5.5 0 0 0-.146.023.5.5 0 0 0-.047.018.5.5 0 0 0-.127.08.5.5 0 0 0-.035.036.5.5 0 0 0-.12.463.5.5 0 0 0 .033.093.5.5 0 0 0 .05.086.5.5 0 0 0 .034.038.5.5 0 0 0 .16.117.5.5 0 0 0 .145.04.5.5 0 0 0 .054.005H13v-1H6.35c.038-.055.107-.086.14-.145.3-.526.347-1.192.39-1.855H13v-1zM7 0v1h6.188c.23 0 .752.252 1.148.648.396.396.65.92.65 1.15L15.003 13h1l-.017-10.2c0-.712-.423-1.34-.94-1.86-.52-.516-1.147-.94-1.858-.94z"/><path d="M9 12v1h5.912c-.018.49-.035 1.005-.22 1.334-.245.442-.56.683-1.192.666a.5.5 0 0 0-.014 0H9v1h4.475c.958.026 1.706-.486 2.093-1.18.387-.693.487-1.54.418-2.363a.5.5 0 0 0-.5-.457z"/></g><path d="M12.987 2v1h1V2zm0 2v1h1V4zm0 2v1h1V6zm0 2v1h1V8zm0 2v1h1v-1z" fill="#adadad"/><path d="M6.88 13H15l-.186 1H6.762z" fill="#fff"/></svg>
